svgs/sharp-solid/audio-description.svg

<svg xmlns="http://www.w3.org/2000/svg" viewBox="0 0 576 512"><!--! Font Awesome Pro 6.6.0 by @fontawesome - https://fontawesome.com License - https://fontawesome.com/license (Commercial License) Copyright 2024 Fonticons, Inc. --><path d="M576 32L0 32 0 480l576 0 0-448zM328 160l56 0c53 0 96 43 96 96s-43 96-96 96l-56 0-24 0 0-24 0-144 0-24 24 0zm24 144l32 0c26.5 0 48-21.5 48-48s-21.5-48-48-48l-32 0 0 96zM173.9 287.8l36.3 0L192 245.2l-18.1 42.6zm-17 40L146.5 352l-52.2 0 75.6-177.4 6.2-14.6 31.7 0 6.2 14.6L289.6 352l-52.2 0-10.3-24.2-70.4 0z"/></svg>

<svg xmlns="http://www.w3.org/2000/svg" viewBox="0 0 576 512"><!--! Font Awesome Pro 6.5.2 by @fontawesome - https://fontawesome.com License - https://fontawesome.com/license (Commercial License) Copyright 2024 Fonticons, Inc. --><path d="M576 32H0V480H576V32zM328 160h56c53 0 96 43 96 96s-43 96-96 96H328 304V328 184 160h24zm24 144h32c26.5 0 48-21.5 48-48s-21.5-48-48-48H352v96zM173.9 287.8h36.3L192 245.2l-18.1 42.6zm-17 40L146.5 352H94.4l75.6-177.4 6.2-14.6h31.7l6.2 14.6L289.6 352H237.5l-10.3-24.2H156.8z"/></svg>
